svg/fluentui-system-icons/ic_fluent_folder_list_16_filled.svg

<svg width="16" height="16" viewBox="0 0 16 16" fill="none" xmlns="http://www.w3.org/2000/svg">
<path d="M7.20669 4H7.17539L6.06235 3.10957C5.97369 3.03864 5.86354 3 5.75 3H4C2.89543 3 2 3.89543 2 5V5.49998H5.5567L7.20669 4ZM8.6933 4L6.08633 6.36995C5.9943 6.45362 5.87438 6.49998 5.75 6.49998H2V11C2 12.1046 2.89543 13 4 13H8.08535C8.1512 12.8137 8.25282 12.6443 8.38195 12.5C8.14443 12.2346 8 11.8842 8 11.5C8 11.1158 8.14443 10.7654 8.38195 10.5C8.14443 10.2346 8 9.88418 8 9.5C8 8.67157 8.67157 8 9.5 8H14V6C14 4.89543 13.1046 4 12 4H8.6933ZM9.5 9C9.22386 9 9 9.22386 9 9.5C9 9.77614 9.22386 10 9.5 10H14.5C14.7761 10 15 9.77614 15 9.5C15 9.22386 14.7761 9 14.5 9H9.5ZM9.5 11C9.22386 11 9 11.2239 9 11.5C9 11.7761 9.22386 12 9.5 12H14.5C14.7761 12 15 11.7761 15 11.5C15 11.2239 14.7761 11 14.5 11H9.5ZM9 13.5C9 13.2239 9.22386 13 9.5 13H14.5C14.7761 13 15 13.2239 15 13.5C15 13.7761 14.7761 14 14.5 14H9.5C9.22386 14 9 13.7761 9 13.5Z" fill="#212121"/>
</svg>

<svg xmlns="http://www.w3.org/2000/svg" width="16" height="16"><path d="M7.207 4h-.032l-1.113-.89A.5.5 0 0 0 5.75 3H4a2 2 0 0 0-2 2v.5h3.557L7.207 4Zm1.486 0L6.086 6.37a.5.5 0 0 1-.336.13H2V11a2 2 0 0 0 2 2h4.085a1.5 1.5 0 0 1 .297-.5 1.494 1.494 0 0 1-.382-1c0-.384.144-.735.382-1A1.5 1.5 0 0 1 9.5 8H14V6a2 2 0 0 0-2-2H8.693ZM9.5 9a.5.5 0 0 0 0 1h5a.5.5 0 0 0 0-1h-5Zm0 2a.5.5 0 0 0 0 1h5a.5.5 0 0 0 0-1h-5ZM9 13.5a.5.5 0 0 1 .5-.5h5a.5.5 0 0 1 0 1h-5a.5.5 0 0 1-.5-.5Z"/></svg>
